!!!COM: Igor (Fyodorovich) Stravinsky
!!!OTL: [T387_Str-w35p74h143m1-h144m3]
**kern	**kern	**dynam	**kern	**dynam	**kern	**dynam	**kern	**dynam	**kern	**dynam	**kern	**dynam	**kern	**dynam	**kern	**dynam	**kern	**dynam
*part10	*part9	*part9	*part8	*part8	*part7	*part7	*part6	*part6	*part5	*part5	*part4	*part4	*part3	*part3	*part2	*part2	*part1	*part1
*staff10	*staff9	*	*staff8	*	*staff7	*	*staff6	*	*staff5	*	*staff4	*	*staff3	*	*staff2	*	*staff1	*
*I"Contrabass	*I"Violoncello	*	*I"Viola	*	*I"Violin II	*	*I"Violin I	*	*I"Timpani	*	*I"Trombone 2	*	*I"Trombone 1	*	*I"Trumpet in C	*	*I"Trumpet in C	*
*I'Cb.	*I'Vc.	*	*I'Vla.	*	*I'Vln. II	*	*I'Vln. I	*	*I'Timp.	*	*I'Tbn. II	*	*I'Tbn. I	*	*I'C Tpt. II	*	*I'C Tpt. I	*
!!pagebreak:original
*clefF4	*clefF4	*	*clefC3	*	*clefG2	*	*clefG2	*	*clefF4	*	*clefC4	*	*clefC4	*	*clefG2	*	*clefG2	*
*Trd0c0	*	*	*	*	*	*	*	*	*	*	*	*	*	*	*	*	*	*
*k[b-e-a-]	*k[b-e-a-]	*	*k[b-e-a-]	*	*k[b-e-a-]	*	*k[b-e-a-]	*	*k[]	*	*k[b-e-a-]	*	*k[b-e-a-]	*	*k[b-e-a-]	*	*k[b-e-a-]	*
*E-:	*E-:	*	*E-:	*	*E-:	*	*E-:	*	*C:	*	*E-:	*	*E-:	*	*E-:	*	*E-:	*
*M3/4	*M3/4	*	*M3/4	*	*M3/4	*	*M3/4	*	*M3/4	*	*M3/4	*	*M3/4	*	*M3/4	*	*M3/4	*
=1	=1	=1	=1	=1	=1	=1	=1	=1	=1	=1	=1	=1	=1	=1	=1	=1	=1	=1
!LO:TX:b:i:t=sempre sf	!	!	!	!	!	!	!	!	!LO:TX:b:i:t=  - secco	!	!	!	!	!	!	!	!	!
!LO:TX:a:t=pizz.	!	!	!LO:TX:a:t=div.	!	!LO:TX:a:t=div.	!	!LO:TX:t=[quarter]=184	!	!LO:TX:b:i:t=poco	!	!	!	!	!	!	!	!LO:TX:t=[quarter]=184	!
4e-	8r	.	8r	.	8r	.	8r	.	4E-X	sf	4%3r	.	4%3r	.	4%3r	.	4%3r	.
*	*clefC4	*	*	*	*	*	*	*	*	*	*	*	*	*	*	*	*	*
.	8Bn'^uL	sf	8f'^uL 8a-	sf	8f'^uL 8a-	sf	8dd-X'^uL	sf	.	.	.	.	.	.	.	.	.	.
8r	(8c'	.	(8f' 8a-	.	(8f' 8a-	.	(8dd-'	.	8r	.	.	.	.	.	.	.	.	.
8B-	8d-X'J)	.	8f'J 8a-)	.	8f'J 8a-)	.	8dd-'J)	.	8BB-X'	.	.	.	.	.	.	.	.	.
4r	8dn'L	.	8f'L 8a-	.	8f'L 8a-	.	8dd-'L	.	4r'	.	.	.	.	.	.	.	.	.
.	8en'J	.	8f'J 8a-	.	8f'J 8a-	.	8cc'J	.	.	.	.	.	.	.	.	.	.	.
=2	=2	=2	=2	=2	=2	=2	=2	=2	=2	=2	=2	=2	=2	=2	=2	=2	=2	=2
4G	8e-X'L	.	8f'L 8a-	.	8f'L 8a-	.	8cc-X'L	.	4GG'	.	4r	.	4r	.	4r	.	4r	.
.	8c-X'J	.	8f'J 8a-	.	8f'J 8a-	.	8b-'J	.	.	.	.	.	.	.	.	.	.	.
8r	4r	.	4r	.	4r	.	4r	.	8r	.	8r	.	8r	.	8r	.	8r	.
!	!	!	!	!	!	!	!	!	!	!	!LO:TX:b:i:t=  ma leggiero	!	!LO:TX:b:i:t=  ma leggiero	!	!LO:TX:b:i:t=  ma leggiero	!	!LO:TX:b:i:t=  ma leggiero	!
8B-	.	.	.	.	.	.	.	.	8BB-X'	.	8d'^L	sf	8f'^L	sf	8a-'^L	sf	8an'^L	sf
4r	4r	.	4r	.	4r	.	4r	.	4r	.	8d-X'	.	8f'	.	8a-'	.	8b-'	.
.	.	.	.	.	.	.	.	.	.	.	8c'J	.	8f'J	.	8a-'J	.	8bn'J	.
=3	=3	=3	=3	=3	=3	=3	=3	=3	=3	=3	=3	=3	=3	=3	=3	=3	=3	=3
4e-	8r	.	8r	.	8r	.	8r	.	4E-X	.	4r	.	4r	.	4r	.	4r	.
.	8d-X'^uL	.	8f'^uL 8a-	.	8f'^uL 8a-	.	8b-'^uL	.	.	.	.	.	.	.	.	.	.	.
8r	(8c'	.	(8f' 8a-	.	(8f' 8a-	.	(8bn'	.	8r	.	4r	.	4r	.	4r	.	4r	.
8B-	8c-X'J)	.	8f'J 8a-)	.	8f'J 8a-)	.	8cc'J)	.	8BB-X	.	.	.	.	.	.	.	.	.
4r	4r	.	4r	.	4r	.	4r	.	4r	.	8r	.	8r	.	8r	.	8r	.
.	.	.	.	.	.	.	.	.	.	.	8c-X'	.	8f'	.	8a-'	.	8dd-X'	.
!!pagebreak:original
=4	=4	=4	=4	=4	=4	=4	=4	=4	=4	=4	=4	=4	=4	=4	=4	=4	=4	=4
4G	8r	.	8r	.	8r	.	8r	.	4GG	.	4%3r	.	4%3r	.	4%3r	.	4%3r	.
.	8c-X'^uL	.	8f'^uL 8a-	.	8f'^uL 8a-	.	8dd-X'^uL	.	.	.	.	.	.	.	.	.	.	.
8r	(8cn'	.	(8f' 8a-	.	(8f' 8a-	.	(8dd-'	.	8r	.	.	.	.	.	.	.	.	.
8B-	8d-X'J)	.	8f'J 8a-)	.	8f'J 8a-)	.	8dd-'J)	.	8BB-X	.	.	.	.	.	.	.	.	.
4r	8dn'L	.	8f'L 8a-	.	8f'L 8a-	.	8dd-'L	.	4r	.	.	.	.	.	.	.	.	.
.	8e-'J	.	8f'J 8a-	.	8f'J 8a-	.	8cc'J	.	.	.	.	.	.	.	.	.	.	.
=5	=5	=5	=5	=5	=5	=5	=5	=5	=5	=5	=5	=5	=5	=5	=5	=5	=5	=5
4e-	8e-'L	.	8f'L 8a-	.	8f'L 8a-	.	8cc-X'L	.	4E-X	.	4r	.	4r	.	4r	.	4r	.
.	8c-X'J	.	8f'J 8a-	.	8f'J 8a-	.	8b-'J	.	.	.	.	.	.	.	.	.	.	.
8r	4r	.	4r	.	4r	.	4r	.	8r	.	8r	.	8r	.	8r	.	8r	.
!	!	!	!	!	!	!	!	!	!	!	!LO:TX:b:i:t=simile	!	!LO:TX:b:i:t=simile	!	!LO:TX:b:i:t=simile	!	!LO:TX:b:i:t=simile	!
8B-	.	.	.	.	.	.	.	.	8BB-X	.	8c-X^L	.	8f^L	.	8a-^L	.	8dd-X^L	.
4r	4r	.	4r	.	4r	.	4r	.	4r	.	8cn	.	8f	.	8a-	.	8dd-	.
.	.	.	.	.	.	.	.	.	.	.	8d-XJ	.	8fJ	.	8a-J	.	8dd-J	.
=6	=6	=6	=6	=6	=6	=6	=6	=6	=6	=6	=6	=6	=6	=6	=6	=6	=6	=6
4G	4%3r	.	4r	.	4r	.	4r	.	4GG	.	8cL	.	8fL	.	8a-L	.	8dd-XL	.
.	.	.	.	.	.	.	.	.	.	.	8d-XJ	.	8fJ	.	8a-J	.	8ccJ	.
8r	.	.	4r	.	4r	.	4r	.	8r	.	8dnL	.	8fL	.	8a-L	.	8cc-XL	.
8B-	.	.	.	.	.	.	.	.	8BB-X	.	8e-J	.	8fJ	.	8a-J	.	8b-J	.
!	!	!	!LO:TX:a:t=unis.	!	!LO:TX:a:t=unis.	!	!LO:TX:a:t=unis.	!	!	!	!	!	!	!	!	!	!	!
4r	.	.	8r	.	8r	.	8r	.	4r	.	4r	.	4r	.	4r	.	4r	.
!	!	!	!LO:TX:b:t=sf assai	!	!LO:TX:b:t=sf assai	!	!LO:TX:b:t=sf assai	!	!	!	!	!	!	!	!	!	!	!
.	.	.	8d-X`^ 8f 8dd-X	.	8f`^ 8a- 8dd-X	.	8f`^u 8a- 8dd-X	.	.	.	.	.	.	.	.	.	.	.
=7	=7	=7	=7	=7	=7	=7	=7	=7	=7	=7	=7	=7	=7	=7	=7	=7	=7	=7
4e-	4r	.	8r	.	8r	.	8r	.	4E-X	.	4%3r	.	4%3r	.	4%3r	.	4%3r	.
.	.	.	8dn`^ 8f#X 8ddn	.	8f#X`^ 8an 8ddn	.	8dn'`^ 8f#X 8an	.	.	.	.	.	.	.	.	.	.	.
8r	8r	.	8r	.	8r	.	8r	.	8r	.	.	.	.	.	.	.	.	.
!	!	!	!LO:TX:a:t=div.	!	!LO:TX:a:t=div.	!	!	!	!	!	!	!	!	!	!	!	!	!
8B-	8Bn'^uL	.	8g^uL 8bn	.	8g^uL 8bn	.	8dd^uL	.	8BB-X	.	.	.	.	.	.	.	.	.
4r	(8c#X'	.	(8g' 8b	.	(8g' 8b	.	(8dd'	.	4r	.	.	.	.	.	.	.	.	.
.	8d'J)	.	8g'J 8b)	.	8g'J 8b)	.	8cc#X'J)	.	.	.	.	.	.	.	.	.	.	.
=	=	=	=	=	=	=	=	=	=	=	=	=	=	=	=	=	=	=
*-	*-	*-	*-	*-	*-	*-	*-	*-	*-	*-	*-	*-	*-	*-	*-	*-	*-	*-
!!!system-decoration: s1,s2,s3,s4,s5,s6,s7,s8,s9,s10
